!!!!SEGMENT: pl-kk--kk-i-382--023-001_anonim-nro-8-kyrie.krn
!!!id: 18xx:1496
!!!COM: Anonim
!!!OTL: Nro 8 Kyrie
!!!PDT:
!!!SMS-siglum: PL-Kk
!!!SMS-shelfmark: Kk.I.382
!!!NIFC-rismID: 1001139140
!!!URL-scan: http://repozytorium.nifc.pl/skany/pl-kk-nut--i-382
!!!ONB-nifc: UWAGA: obsada: S (T 1), A (B 1), T 2, B 2; S (T 1): skan 0021-0022; A (B 1): skan 0168; T 2: skan 0093; B 2: skan 0239
!!!SMS-variant:
!!!SMS-altvar:
**kern	**text	**kern	**text	**kern	**text	**kern	**text
*part4	*part4	*part3	*part3	*part2	*part2	*part1	*part1
*staff4	*staff4	*staff3	*staff3	*staff2	*staff2	*staff1	*staff1
*I"Basso II	*	*I"Tenore II	*	*I"Alto vel Basso I	*	*I"Soprano vel Tenore I.	*
*I'B 2	*	*I'T 2	*	*I'A (B 1)	*	*I'S (T 1)	*
*clefF4	*	*clefC4	*	*clefC3	*	*clefC1	*
*k[]	*	*k[]	*	*k[]	*	*k[]	*
*M3/4	*	*M3/4	*	*M3/4	*	*M3/4	*
=1	=1	=1	=1	=1	=1	=1	=1
*2\right	*	*2\right	*	*2\right	*	*2\right	*
!LO:TX:t=P:problem:all\right:global	!	!LO:TX:t=P:problem:all\right:global	!	!LO:TX:t=P:problem:przy kluczu 3 bemole skreślone ołówkiem, dopisane C-dur [przyjęto zgodnie z pozostałymi partiami, czyli wersję bez bemoli]	!	!	!
!	!	!LO:TX:a:t=P:problem:w źródle "Lento." zapisane przed pierwszym taktem, nad pięciolinią	!	!	!	!	!
!	!	!LO:TX:a:i:t=Lento.	!	!LO:TX:t=P:problem:all\right:global	!	!LO:TX:t=P:problem:all\right:global	!
!LO:TX:a:t=P:problem:w źródle ta adnotacja zapisana przed pierwszym taktem, na pięciolinii i częściowo przed pięciolinią	!	!LO:TX:a:t=P:problem:w źródle "Nro. 8. Kyrie" zapisane przed pierwszym taktem, na pięciolinii i częściowo przed pięciolinią	!	!LO:TX:a:t=P:problem:w źródle ta adnotacja zapisana przed pierwszym taktem, na pięciolinii	!	!LO:TX:a:t=P:problem:w źródle ta adnotacja zapisana przed pierwszym taktem, na pięciolinii i częściowo przed pięciolinią	!
!LO:TX:a:i:t=Nro 8. Kyrie	!	!LO:TX:a:i:t=Nro. 8. Kyrie	!	!LO:TX:a:i:t=Nro 8. Kyrie	!	!LO:TX:a:i:t=Nro 8. Kyrye.	!
!	!	!	!	!LO:TX:a:t=P:problem:w źródle "C dur" zapisane ołówkiem	!	!	!
!	!	!	!	!LO:TX:a:i:t=C dur	!	!	!
(>4C/	Ky-	2c\	Ky-	2g\	Ky-	2ee\	Ky-
4E\)	.	.	.	.	.	.	.
4G\	-ri-	4B\	-ri-	4f\	-ri-	4dd\	-ri-
=2	=2	=2	=2	=2	=2	=2	=2
(>4c\	-e	2G/	-e	2e\	-e	2cc\	-e-
4E\)	.	.	.	.	.	.	.
4G\	e-	4G/	e-	4d\	e-	4b\	.
=3	=3	=3	=3	=3	=3	=3	=3
(>4C/	-le-	(<4G/	-le-	(>8e\L	-le-	8cc\L	-le-
.	.	.	.	16d\L	.	16b\L	.
.	.	.	.	(>16e\JJ)	.	16cc\JJ	.
4F\)	.	4A/)	.	8g\L	.	8ee\L	.
.	.	.	.	8f\J)	.	8dd\J	.
4G\	-i-	4G/	-i-	(>8e\L	-i-	(>8cc\L	-i-
.	.	.	.	8d\J)	.	8b\J)	.
=4	=4	=4	=4	=4	=4	=4	=4
4C/	-son	4G/	-son	4e\	-son	4cc\	-son
4r	.	4r	.	4r	.	4r	.
4G\	e-	4G/	e-	(>8e\L	e-	(>8cc\L	e-
.	.	.	.	8f\J)	.	8dd\J)	.
!	!	!	!	!LO:LB:g=original	!	!	!
=5	=5	=5	=5	=5	=5	=5	=5
4G\	-lei-	4G/	-lei-	4e\	-lei-	4cc\	-lei-
4G\	-son	4G/	-son	4d\	-son	4b\	-son
4G\	e-	4G/	e-	(>8f\L	e-	(>8dd\L	e-
.	.	.	.	8g\J)	.	8ee\J)	.
!	!	!	!	!	!	!LO:LB:g=original	!
=6	=6	=6	=6	=6	=6	=6	=6
4c\	-lei-	4G/	-lei-	4f\	-lei-	4dd\	-lei-
4C/	-son	4G/	-son	4e\	-son	4cc\	-son
4C/	e-	4c\	e-	4g\	e-	4ee\	e-
!LO:LB:g=original	!	!LO:LB:g=original	!	!	!	!	!
=7	=7	=7	=7	=7	=7	=7	=7
(>4C/	-le-	4c\	-le-	(>4g\	-le-	(>4ee\	-le-
4F\)	.	2A\	-i-	4f\)	.	4dd\)	.
4F#X\	-i-	.	.	4e\	-i-	4cc\	-i-
=8	=8	=8	=8	=8	=8	=8	=8
2G\	-son	2G/	-son,	2d\	-son	2b\	-son
4r	.	4r	.	4r	.	4r	.
=9	=9	=9	=9	=9	=9	=9	=9
!	!	!	!	!	!	!LO:TX:a:t=P:problem:w źródle ta nuta dopisana ołówkiem	!
2G\	Ky-	2.r	.	2g\	Ky-	2gg	.
!	!	!LO:TX:a:t=1.	!	!	!	!LO:TX:b:t=1.	!
!	!	!	!	!LO:SIC:v:s=4g	!	!	!
!	!	!	!	!	!	!LO:TX:a:t=P:problem:w źródle ta nuta dopisana ołówkiem	!
4G\	-ri-	.	.	4f\	-ri-	4gg	.
=10	=10	=10	=10	=10	=10	=10	=10
!	!	!	!	!	!	!LO:TX:a:t=P:problem:w źródle ta nuta dopisana ołówkiem	!
4.BB/	-e	4r	.	4.B/	-e	4.b	.
.	.	4r	.	.	.	.	.
!	!	!	!	!	!	!LO:TX:a:t=P:problem:w źródle ta nuta dopisana ołówkiem	!
(>8D\L	e-	.	.	(>8d\L	e-	8dd	.
!	!	!	!	!	!	!LO:TX:a:t=P:problem:w źródle ta nuta dopisana ołówkiem	!
8F\	.	8r	.	8f\	.	8ffL	.
8G\J)	.	8B\	e-	8d\J)	.	8dd\J	e-
=11	=11	=11	=11	=11	=11	=11	=11
4C/	-lei-	4c\	-lei-	4e\	-lei-	4ee\	-lei-
4G\	-son	4B\	-son	4g\	-son	4dd\	-son
4r	.	4r	.	4r	.	4r	.
!	!	!	!	!LO:LB:g=original	!	!	!
=12	=12	=12	=12	=12	=12	=12	=12
8GG/	Ky-	(>8B\L	Ky-	(>8d\L	Ky-	8dd\	Ky-
8G\	-ri-	8d\J)	.	8f\J)	.	8b\	-ri-
4G\	-e	(>8c\L	-ri-	(>8e\L	-ri-	(>4g\	-e
.	.	8e\J)	.	8g\J)	.	.	.
4G\	e-	4d\	-e	4f\	-e	4b\)	.
=13	=13	=13	=13	=13	=13	=13	=13
4c\	-le-	(>8c\L	Ky-	(>8e\L	Ky-	4g\	Ky-
.	.	8e\J)	.	8g\J)	.	.	.
4G\	-i-	(>8d\L	-ri-	(>8f\L	-ri-	4g\	-ri-
.	.	8f\J)	.	8a\J)	.	.	.
4C/	-son	4e\	-e	4g\	-e	4g\	-e
!LO:LB:g=original	!	!LO:LB:g=original	!	!	!	!LO:LB:g=original	!
=14	=14	=14	=14	=14	=14	=14	=14
4F\	e-	(>8f\L	e-	(>8a\L	e-	(>8cc\L	e-
.	.	16e\L	.	16g\L	.	8a\J)	.
.	.	16d\JJ)	.	16f\JJ)	.	.	.
4G\	-le-	4c\	-le-	4e\	-le-	4g\	-le-
4GG/	-i-	4B\	-i-	4d\	-i-	4g\	-i-
=15	=15	=15	=15	=15	=15	=15	=15
2C/	-son	2c\	-son	2e\	-son	2g\	-son
4r	.	4r	.	4r	.	4r	.
=16	=16	=16	=16	=16	=16	=16	=16
2G\	Ky-	2.r	.	2g\	Ky-	2gg\	Ky-
!	!	!LO:TX:a:t=1.	!	!	!	!	!
!	!	!	!	!LO:TX:a:t=P:problem:poprawiono wysokość z f na g, na podstawie ołówkowej adnotacji informującej, że jest to g	!	!	!
!	!	!	!	!LO:TX:a:t=P:problem:w źródle "g" zapisane ołówkiem	!	!	!
!	!	!	!	!LO:TX:a:i:t=g	!	!	!
!	!	!	!	!LO:TX:b:t=P:problem:w źródle "g" zapisane ołówkiem	!	!	!
!	!	!	!	!LO:TX:b:i:t=g	!	!	!
4G\	-ri-	.	.	4g\	-ri-	4gg\	-ri-
=17	=17	=17	=17	=17	=17	=17	=17
4.BB/	-e	4r	.	4.B/	-e	(>4.b\	-e
.	.	4r	.	.	.	.	.
(>8D\L	e-	.	.	(>8d\L	e-	8dd\)	.
8F\	.	8r	.	8f\	.	(>8ff\L	e-
8G\J)	.	8B\	e-	8g\J)	.	8dd\J)	.
=18	=18	=18	=18	=18	=18	=18	=18
4E\	-lei-	4c\	-lei-	4g\	-lei-	4cc\	-lei-
4G\	-son	4B\	-son	4g\	-son	4dd\	-son,
!	!	!	!	!	!	!LO:TX:a:t=P:problem:w źródle ta adnotacja zapisana za taktem 18, na pięciolinii	!
!	!	!	!	!	!	!LO:TX:b:i:t=V&colon; S&colon;	!
4r	.	4r	.	4r	.	4r	.
!	!	!	!	!LO:LB:g=original	!	!LO:PB:g=original	!
=19	=19	=19	=19	=19	=19	=19	=19
8GG/	Ky-	(>8B\L	Ky-	(>8d\L	Ky-	8dd\	Ky-
8G\	-ri-	8d\J)	.	8f\J)	.	8b\	-ri-
4G\	-e	(>8c\L	-ri-	(>8e\L	-ri-	(>4g\	-e
.	.	8e\J)	.	8g\J)	.	.	.
4G\	e	4d\	-e	4f\	-e	4b\)	.
!LO:LB:g=original	!	!	!	!	!	!	!
=20	=20	=20	=20	=20	=20	=20	=20
4C/	Ky-	(>8c\L	Ky-	(>8e\L	Ky-	4g\	Ky-
.	.	8e\J)	.	8g\J)	.	.	.
4G\	-ri-	(>8d\L	-ri-	(>8f\L	-ri-	4g\	-ri-
.	.	8f\J)	.	8a\J)	.	.	.
4c\	-e	4e\	-e	4g\	-e	4g\	-e
!	!	!LO:LB:g=original	!	!	!	!	!
=21	=21	=21	=21	=21	=21	=21	=21
4F\	e-	(>8f\L	e-	(>8a\L	e-	(>8cc\L	e-
.	.	16e\L	.	16g\L	.	8a\J)	.
.	.	16d\JJ)	.	16f\JJ)	.	.	.
4G\	-le-	4c\	-le-	4e\	-le-	4g\	-le-
4GG/	-i-	4B\	-i-	4d\	-i-	4g\	-i-
=22	=22	=22	=22	=22	=22	=22	=22
4C/	-son	2c\	-son	2e\	-son	2g\	-son
4r	.	.	.	.	.	.	.
4C/	e-	4c\	e-	4e\	e-	4g\	e-
=23	=23	=23	=23	=23	=23	=23	=23
2.C/	-lei-	2.c\	-lei-	2.f\	-lei-	2.a\	-lei-
=24	=24	=24	=24	=24	=24	=24	=24
2.C/	-son.	2.c\	-son.	2.e\	-son.	2.g\	-son.
!LO:LB:g=original	!	!LO:LB:g=original	!	!LO:LB:g=original	!	!LO:LB:g=original	!
==25	==25	==25	==25	==25	==25	==25	==25
*M4/4	*	*M4/4	*	*M4/4	*	*M4/4	*
*met(C.)	*	*met(C.)	*	*met(c|)	*	*met(C.)	*
!	!	!LO:TX:a:t=P:problem:w źródle ta adnotacja zapisana przed taktem 25, na pięciolinii i częściowo przed pięciolinią	!	!LO:TX:a:t=P:problem:w źródle ta adnotacja zapisana przed taktem 25, na pięciolinii	!	!LO:TX:a:t=P:problem:w źródle ta adnotacja zapisana przed taktem 25, na pięciolinii	!
!	!	!LO:TX:a:i:t=Christe.	!	!LO:TX:a:i:t=Christe	!	!LO:TX:a:i:t=Christe	!
!LO:TX:a:t=P:problem:w źródle oznaczenie metryczne C. (nie wyświetla się)	!	!LO:TX:a:t=P:problem:w źródle oznaczenie metryczne C. (nie wyświetla się)	!	!	!	!LO:TX:a:t=P:problem:w źródle oznaczenie metryczne C. (nie wyświetla się)	!
2C/	Chri-	2e\	Chri-	2g\	Chri-	2cc\	Chri-
4BB/	-ste	(>8d\L	-ste	(>8f\L	-ste	4g\	-ste
.	.	8c\J)	.	8e\J)	.	.	.
(<8C/L	e-	(>8B\L	e-	(>8d\L	e-	4g\	e-
8E/J)	.	8c\J)	.	8c\J)	.	.	.
=26	=26	=26	=26	=26	=26	=26	=26
4G\	-lei-	4e\	-lei-	4c\	-lei-	4g\	-lei-
4GG/	-son	4d\	-son	4B\	-son	4g\	-son
8r	.	4r	.	4r	.	4r	.
(>8G\L	e-	.	.	.	.	.	.
8A\	.	4d\	e-	4f\	e-	4b\	e-
8B\J)	.	.	.	.	.	.	.
=27	=27	=27	=27	=27	=27	=27	=27
4c\	-lei-	4d\	-lei-	4f\	-lei-	4g\	-lei-
4C/	-son	4c\	-son	4e\	-son	4g\	-son
4r	.	4r	.	4r	.	4r	.
4C/	e-	4e\	Chri-	4g\	Chri-	4g\	e-
=28	=28	=28	=28	=28	=28	=28	=28
2C/	-le-	4e\	-ste	4g\	-ste	2cc\	-le-
.	.	(>8f\L	e-	(>8a\L	e-	.	.
.	.	8e\J)	.	8g\)	.	.	.
(<4BB/	-i-	(>8e\L	-le-	(>8g\	-le-	(>4a\	-i-
.	.	8d\J)	.	8f\J)	.	.	.
4C/)	.	(>8d\L	-i-	(>8f\L	-i-	4g\)	.
.	.	8c\J)	.	8e\J)	.	.	.
=29	=29	=29	=29	=29	=29	=29	=29
2G\	-son	2.B\	-son.	2d\	-son.	2g\	-son
2r	.	.	.	2r	.	2r	.
.	.	4r	.	.	.	.	.
!	!	!LO:LB:g=original	!	!LO:LB:g=original	!	!LO:LB:g=original	!
=30	=30	=30	=30	=30	=30	=30	=30
!LO:TX:a:t=P:problem:takt rozpoczyna repetycyjna kreska taktowa ||:	!	!	!	!	!	!	!
2C/	Chri-	2c\	Chri-	(>4.e\	Chri-	(>4.g\	Chri-
.	.	.	.	8f\)	.	8a\)	.
4E\	-ste	4c\	-ste	4g\	-ste	4b-X\	-ste
4C/	e-	4c\	e-	4g\	e-	4b-\	e-
!LO:LB:g=original	!	!	!	!	!	!	!
=31	=31	=31	=31	=31	=31	=31	=31
4F\	-le-	2c\	-lei-	(>8a\L	-le-	(>8cc\L	-le-
.	.	.	.	8f\J)	.	8a\J)	.
(<8C/L	-i-	.	.	(>8e\L	-i-	(>8g\L	-i-
8AA/J)	.	.	.	8g\J)	.	8b-X\J)	.
2FF/	-son	2c\	-son	2f\	-son	2a\	-son
=32	=32	=32	=32	=32	=32	=32	=32
2D\	Chri-	2d\	Chri-	(>4.f#X\	Chri-	(>4.a\	Chri-
.	.	.	.	8g\)	.	8bn\)	.
4F#X\	-ste	4d\	-ste	4a\	-ste	4cc\	-ste
4D\	e-	4d\	e-	4a\	e-	4cc\	e-
=33	=33	=33	=33	=33	=33	=33	=33
4G\	-le-	2d\	-lei-	(>8b\L	-le-	(>8dd\L	-le-
.	.	.	.	8g\J)	.	8b\J)	.
(<8D/L	-i-	.	.	(>8f#X\L	-i-	(>8a\L	-i-
8BB/J)	.	.	.	8a\J)	.	8cc\J)	.
2GG/	-son	2d\	-son	2g\	-son	2b\	-son
=34	=34	=34	=34	=34	=34	=34	=34
2GG/	Chri-	(>4.d\	Chri-	(>4.d\	Chri-	(>4.b\	Chri-
.	.	8c\)	.	8e\)	.	8cc\)	.
4G\	-ste	4B\	-ste	4fn\	-ste	4dd\	-ste
4G\	e-	4B\	e-	4f\	e-	4dd\	e-
!	!	!	!	!LO:LB:g=original	!	!LO:LB:g=original	!
=35	=35	=35	=35	=35	=35	=35	=35
4C/	-le-	2G/	-lei-	(>8e\L	-le-	(>8cc\L	-le-
.	.	.	.	8g\J)	.	8ee\J)	.
4BB/	-i-	.	.	(>8f\L	-i-	(>8dd\L	-i-
.	.	.	.	8a\J)	.	8ff\J)	.
4C/	-son	4c\	-son	4g\	-son	4ee\	-son
4F\	e-	4c\	e-	4a\	chri-	4ff\	e-
!	!	!LO:LB:g=original	!	!	!	!	!
=36	=36	=36	=36	=36	=36	=36	=36
(>4E\	-le-	(>4c\	-le-	4g\	-ste	(>4ee\	-le-
4F\)	.	4A\)	.	(>8a\L	e-	8ff\L	.
.	.	.	.	8f\J)	.	8dd\J)	.
2G\	-i-	2G/	-i-	4e\	-le-	(>4cc\	-i-
.	.	.	.	(>8f\L	-i-	8dd\L	.
.	.	.	.	8d\J)	.	8b\J)	.
=37	=37	=37	=37	=37	=37	=37	=37
!LO:TX:a:t=P:problem:takt kończy repetycyjna kreska taktowa :||	!	!	!	!	!	!	!
1C	-son.	2.G/	-son	2e\	-son	2cc\	-son
.	.	.	.	2r	.	2r	.
.	.	4r	.	.	.	.	.
=38	=38	=38	=38	=38	=38	=38	=38
!LO:TX:t=P:problem:fragment oznaczony znakiem repetycji	!	!	!	!	!	!	!
2C/yy	Chri-	2c\	Chri-	(>4.e\	Chri-	(>4.g\	Chri-
.	.	.	.	8f\)	.	8a\)	.
4E\yy	-ste	4c\	-ste	4g\	-ste	4b-X\	-ste
4C/yy	e-	4c\	e-	4g\	e-	4b-\	e-
=39	=39	=39	=39	=39	=39	=39	=39
4F\yy	-le-	2c\	-lei-	(>8a\L	-le-	(>8cc\L	-le-
.	.	.	.	8f\J)	.	8a\J)	.
(<8C/Lyy	-i-	.	.	(>8e\L	-i-	(>8g\L	-i-
8AA/J)yy	.	.	.	8g\J)	.	8b-X\J)	.
2FF/yy	-son	2c\	-son	4f\	-son	2a\	-son
.	.	.	.	4r	.	.	.
!	!	!	!	!LO:LB:g=original	!	!LO:LB:g=original	!
=40	=40	=40	=40	=40	=40	=40	=40
2D\yy	Chri-	2d\	Chri-	(>4.f#X\	Chri-	(>4.a\	Chri-
.	.	.	.	8g\)	.	8bn\)	.
4F#X\yy	-ste	4d\	-ste	4a\	-ste	4cc\	-ste
4D\yy	e-	4d\	e-	4a\	e-	4cc\	e-
=41	=41	=41	=41	=41	=41	=41	=41
4G\yy	-le-	2d\	-lei-	(>8b\L	-le-	(>8dd\L	-le-
.	.	.	.	8g\J)	.	8b\J)	.
(<8D/Lyy	-i-	.	.	(>8f#X\L	-i-	(>8a\L	-i-
8BB/J)yy	.	.	.	8a\J)	.	8cc\J)	.
2GG/yy	-son	2d\	-son	2g\	-son	2b\	-son
!	!	!LO:LB:g=original	!	!	!	!	!
=42	=42	=42	=42	=42	=42	=42	=42
2GG/yy	Chri-	(>4.d\	Chri-	(>4.d\	Chri-	4.b\	Ky-
.	.	8c\)	.	8e\)	.	8cc\	-ri-
4G\yy	-ste	4B\	-ste	4fn\	-ste	4dd\	-e
4G\yy	e-	4B\	e-	4f\	e-	4dd\	e-
=43	=43	=43	=43	=43	=43	=43	=43
4C/yy	-le-	2G/	-lei-	(>8e\L	-le-	(>8cc\L	-le-
.	.	.	.	8g\J)	.	8ee\J)	.
4BB/yy	-i-	.	.	(>8f\L	-i-	(>8dd\L	-i-
.	.	.	.	8a\J)	.	8ff\J)	.
4C/yy	-son	4c\	-son	4g\	-son	4ee\	-son
4F\yy	e-	4c\	e-	4a\	Chri-	4ff\	e-
!	!	!	!	!	!	!LO:LB:g=original	!
=44	=44	=44	=44	=44	=44	=44	=44
(>4E\yy	-le-	(>4c\	-le-	4g\	-ste	(>4ee\	-le-
4F\)yy	.	4A\)	.	(>8a\L	e-	8ff\L	.
.	.	.	.	8f\J)	.	8dd\J)	.
2G\yy	-i-	2G/	-i-	4e\	-le-	(>4cc\	-i-
.	.	.	.	(>8f\L	-i-	8dd\L	.
.	.	.	.	8d\J)	.	8b\J)	.
=45	=45	=45	=45	=45	=45	=45	=45
1Cyy	-son.	2.G/	-son.	1e	-son.	1cc	-son.
.	.	4r	.	.	.	.	.
!	!	!LO:TX:a:t=P:problem:w źródle ta adnotacja zapisana na pięciolinii	!	!LO:TX:a:t=P:problem:w źródle ta adnotacja zapisana za taktem 45, na marginesie strony	!	!LO:TX:a:t=P:problem:w źródle ta adnotacja zapisana na pięciolinii	!
!	!	!LO:TX:b:i:t=Kyrie DaCapo.	!	!LO:TX:b:i:t=Kyrie\nDa Capo	!	!LO:TX:b:i:t=Kyrie Da Capo.	!
==	==	==	==	==	==	==	==
*-	*-	*-	*-	*-	*-	*-	*-
!!!system-decoration: [(s1,s2,s3,s4)]
!!!RDF**kern: > = above
!!!RDF**kern: < = below
!!!ENC: Andrzej Kubiczek
!!!END: 2021-01-28
!!!EED: Antoni Szymański
!!!EST: 2021-02-04
